picture/down-arrow.svg

<?xml version="1.0" encoding="UTF-8" standalone="no"?>
<svg
   xmlns:dc="http://purl.org/dc/elements/1.1/"
   xmlns:cc="http://creativecommons.org/ns#"
   xmlns:rdf="http://www.w3.org/1999/02/22-rdf-syntax-ns#"
   xmlns:svg="http://www.w3.org/2000/svg"
   xmlns="http://www.w3.org/2000/svg"
   xmlns:sodipodi="http://sodipodi.sourceforge.net/DTD/sodipodi-0.dtd"
   xmlns:inkscape="http://www.inkscape.org/namespaces/inkscape"
   version="1.1"
   id="Layer_1"
   x="0px"
   y="0px"
   viewBox="0 0 502.4 502.4"
   style="enable-background:new 0 0 502.4 502.4;"
   xml:space="preserve"
   sodipodi:docname="down-arrow1.svg"
   inkscape:version="1.0.1 (3bc2e813f5, 2020-09-07)"><metadata
   id="metadata45"><rdf:RDF><cc:Work
       rdf:about=""><dc:format>image/svg+xml</dc:format><dc:type
         rdf:resource="http://purl.org/dc/dcmitype/StillImage" /></cc:Work></rdf:RDF></metadata><defs
   id="defs43" /><sodipodi:namedview
   pagecolor="#ffffff"
   bordercolor="#666666"
   borderopacity="1"
   objecttolerance="10"
   gridtolerance="10"
   guidetolerance="10"
   inkscape:pageopacity="0"
   inkscape:pageshadow="2"
   inkscape:window-width="1920"
   inkscape:window-height="1011"
   id="namedview41"
   showgrid="false"
   inkscape:zoom="1.1878944"
   inkscape:cx="188.32591"
   inkscape:cy="265.9939"
   inkscape:window-x="-8"
   inkscape:window-y="-8"
   inkscape:window-maximized="1"
   inkscape:current-layer="Layer_1"
   inkscape:document-rotation="0" />
<path
   id="path2"
   style="fill:#ffffff;fill-opacity:1"
   d="M 44 103.59961 C 36.4 103.59961 29.600391 106.39961 24.400391 111.59961 L 8 128 C 2.8 133.2 0 140.39961 0 147.59961 C 0 155.19961 2.8 161.99922 8 167.19922 L 231.59961 390.80078 C 236.79961 396.00078 243.59922 398.80078 251.19922 398.80078 C 258.79922 398.80078 265.60078 396.00078 270.80078 390.80078 L 494.40039 167.19922 C 499.60039 161.99922 502.40039 154.79961 502.40039 147.59961 C 502.40039 139.99961 499.60039 133.2 494.40039 128 L 478 111.59961 C 472.8 106.39961 465.60039 103.59961 458.40039 103.59961 C 450.80039 103.59961 444.00078 106.39961 438.80078 111.59961 L 251.19922 299.19922 L 63.599609 111.59961 C 58.399609 106.39961 51.2 103.59961 44 103.59961 z " />



<g
   id="g10">
</g>
<g
   id="g12">
</g>
<g
   id="g14">
</g>
<g
   id="g16">
</g>
<g
   id="g18">
</g>
<g
   id="g20">
</g>
<g
   id="g22">
</g>
<g
   id="g24">
</g>
<g
   id="g26">
</g>
<g
   id="g28">
</g>
<g
   id="g30">
</g>
<g
   id="g32">
</g>
<g
   id="g34">
</g>
<g
   id="g36">
</g>
<g
   id="g38">
</g>
</svg>

<svg xmlns="http://www.w3.org/2000/svg" viewBox="0 0 502.4 502.4" style="enable-background:new 0 0 502.4 502.4" xml:space="preserve"><path style="fill:#fff;fill-opacity:1" d="M44 103.6c-7.6 0-14.4 2.8-19.6 8L8 128c-5.2 5.2-8 12.4-8 19.6 0 7.6 2.8 14.4 8 19.6l223.6 223.6c5.2 5.2 12 8 19.6 8 7.6 0 14.4-2.8 19.6-8l223.6-223.6c5.2-5.2 8-12.4 8-19.6 0-7.6-2.8-14.4-8-19.6L478 111.6c-5.2-5.2-12.4-8-19.6-8-7.6 0-14.4 2.8-19.6 8L251.2 299.2 63.6 111.6c-5.2-5.2-12.4-8-19.6-8z"/></svg>
